!!!COM: Louise Reichardt
!!!CNT: Deutsch
!!!TXO: Deutsch
!!!OTL: Heimweh
!!!LYR: Wetzel
!!!OPR: 
!!!OPS: No opus information available
!!!ONM: No. 31
!!!ENC: Ben Fuhrman
!!!YOR: Louise Reichardt: Songs
!!!YOR: New York, Da Capo Press, 1981
!!!ODT: 1800 - 1826
!!NB: Only vocal melody encoded.
!!NB: First instance of melodic material only encoded.
!!created: 2/19/10 12:58PM
!!proofed and posted: 2/19/10 12:58PM
**kern	**silbe
*clef G2	*
*k[f#]	*
*M2/4	*
*MM[Wehmu2thig]	*
=1	=1
{(8b	{Wenn
8b	die
8b	Ro-
8b)	-sen
=2	=2
8.dd	blu2-
32cc	|
32b	|
4a	-hen,
=3	=3
8.g	Hof-
16g	-fe
8.a	lie-
16a	-bes
=4	=4
4.b}	Herz,}
8r	.
=5	=5
{(8b	{still
8b	und
8b	ku2hl
8b)	ver-
=6	=6
[8ee	-glu2-
(16ee]	|
48dd	|
48cc	|
48b)	|
8a	-hen
8r	.
=7	=7
8.b	wird
16g	der
8.cc	heis-
16f#	-se
=8	=8
4.g}	Schmerz.}
8r	.
=9	=9
{8.cc	{Was
16b	den
(8aS	Win-
16ee)	|
16dd	-ter
=10	=10
8dd	u2-
8b	-ber
[4dd	oft
=11	=11
16dd]	|
16gg	|
16ff#	|
16ee	un-
8dd	-heil
8cc	-bar
=12	=12
4b}	schien,}
4r	.
=13	=13
{8dd	{Es
8dd#	ent-
8.ee	-weicht
16ddn	das
=14	=14
8dd	Fie-
8cc	-ber,
8b	wenn
8a	die
=15	=15
[4dd	Ros-
16dd]	|
16cc	|
16a	|
16f#	-sen
=16	=16
4g}	blu2hn.}
4r	.
==	==
*-	*-
